content/img/svg/icon-alert.svg

<svg width="5" height="24" viewBox="0 0 5 24" fill="none" xmlns="http://www.w3.org/2000/svg">
<path d="M0 21.5C0 20.1193 1.11929 19 2.5 19V21C2.22386 21 2 21.2239 2 21.5H0ZM2.5 24C1.11929 24 0 22.8807 0 21.5H2C2 21.7761 2.22386 22 2.5 22V24ZM5 21.5C5 22.8807 3.88071 24 2.5 24V22C2.77614 22 3 21.7761 3 21.5H5ZM2.5 19C3.88071 19 5 20.1193 5 21.5H3C3 21.2239 2.77614 21 2.5 21V19ZM2.5 25C0.567003 25 -1 23.433 -1 21.5H1C1 22.3284 1.67157 23 2.5 23V25ZM6 21.5C6 23.433 4.433 25 2.5 25V23C3.32843 23 4 22.3284 4 21.5H6ZM2.5 18C4.433 18 6 19.567 6 21.5H4C4 20.6716 3.32843 20 2.5 20V18ZM-1 21.5C-1 19.567 0.567003 18 2.5 18V20C1.67157 20 1 20.6716 1 21.5H-1ZM5 2.5V14.5H3V2.5H5ZM2.5 0C3.88071 0 5 1.11929 5 2.5H3C3 2.22386 2.77614 2 2.5 2V0ZM0 2.5C0 1.11929 1.11929 0 2.5 0V2C2.22386 2 2 2.22386 2 2.5H0ZM0 14.5V2.5H2V14.5H0ZM2.5 17C1.11929 17 0 15.8807 0 14.5H2C2 14.7761 2.22386 15 2.5 15V17ZM5 14.5C5 15.8807 3.88071 17 2.5 17V15C2.77614 15 3 14.7761 3 14.5H5ZM2.5 18C0.567003 18 -1 16.433 -1 14.5H1C1 15.3284 1.67157 16 2.5 16V18ZM6 14.5C6 16.433 4.433 18 2.5 18V16C3.32843 16 4 15.3284 4 14.5H6ZM6 2.5V14.5H4V2.5H6ZM2.5 -1C4.433 -1 6 0.567005 6 2.5H4C4 1.67157 3.32843 1 2.5 1V-1ZM-1 2.5C-1 0.567005 0.567003 -1 2.5 -1V1C1.67157 1 1 1.67157 1 2.5H-1ZM-1 14.5V2.5H1V14.5H-1Z" fill="#FF5D00" mask="url(#icon-alert-1-inside-1)"/>
</svg>

<svg width="5" height="24" viewBox="0 0 5 24" fill="none" xmlns="http://www.w3.org/2000/svg">
        <mask id="icon-alert-1-inside-1" fill="white"/>
        <path fill-rule="evenodd" clip-rule="evenodd" d="M2.5 20C1.67157 20 1 20.6716 1 21.5C1 22.3284 1.67157 23 2.5 23C3.32843 23 4 22.3284 4 21.5C4 20.6716 3.32843 20 2.5 20ZM0 21.5C0 22.8807 1.11929 24 2.5 24C3.88071 24 5 22.8807 5 21.5C5 20.1193 3.88071 19 2.5 19C1.11929 19 0 20.1193 0 21.5ZM4 14.5V2.5C4 1.67157 3.32843 1 2.5 1C1.67157 1 1 1.67157 1 2.5V14.5C1 15.3284 1.67157 16 2.5 16C3.32843 16 4 15.3284 4 14.5ZM0 14.5C0 15.8807 1.11929 17 2.5 17C3.88071 17 5 15.8807 5 14.5V2.5C5 1.11929 3.88071 0 2.5 0C1.11929 0 0 1.11929 0 2.5V14.5Z"/>
    <path d="M0 21.5A2.5 2.5 0 0 1 2.5 19v2a.5.5 0 0 0-.5.5H0zM2.5 24A2.5 2.5 0 0 1 0 21.5h2a.5.5 0 0 0 .5.5v2zM5 21.5A2.5 2.5 0 0 1 2.5 24v-2a.5.5 0 0 0 .5-.5h2zM2.5 19A2.5 2.5 0 0 1 5 21.5H3a.5.5 0 0 0-.5-.5v-2zm0 6A3.5 3.5 0 0 1-1 21.5h2A1.5 1.5 0 0 0 2.5 23v2zM6 21.5A3.5 3.5 0 0 1 2.5 25v-2A1.5 1.5 0 0 0 4 21.5h2zM2.5 18A3.5 3.5 0 0 1 6 21.5H4A1.5 1.5 0 0 0 2.5 20v-2zM-1 21.5A3.5 3.5 0 0 1 2.5 18v2A1.5 1.5 0 0 0 1 21.5h-2zm6-19v12H3v-12h2zM2.5 0A2.5 2.5 0 0 1 5 2.5H3a.5.5 0 0 0-.5-.5V0zM0 2.5A2.5 2.5 0 0 1 2.5 0v2a.5.5 0 0 0-.5.5H0zm0 12v-12h2v12H0zM2.5 17A2.5 2.5 0 0 1 0 14.5h2a.5.5 0 0 0 .5.5v2zM5 14.5A2.5 2.5 0 0 1 2.5 17v-2a.5.5 0 0 0 .5-.5h2zM2.5 18A3.5 3.5 0 0 1-1 14.5h2A1.5 1.5 0 0 0 2.5 16v2zM6 14.5A3.5 3.5 0 0 1 2.5 18v-2A1.5 1.5 0 0 0 4 14.5h2zm0-12v12H4v-12h2zM2.5-1A3.5 3.5 0 0 1 6 2.5H4A1.5 1.5 0 0 0 2.5 1v-2zM-1 2.5A3.5 3.5 0 0 1 2.5-1v2A1.5 1.5 0 0 0 1 2.5h-2zm0 12v-12h2v12h-2z" fill="#FF5D00" mask="url(#icon-alert-1-inside-1)"/>
</svg>
